svg/logo/wechat_pay_line.svg

<?xml version="1.0" encoding="UTF-8"?>
<svg width="24px" height="24px" viewBox="0 0 24 24" version="1.1" xmlns="http://www.w3.org/2000/svg" xmlns:xlink="http://www.w3.org/1999/xlink">
    <title>wechat_pay_line</title>
    <g id="Icon" stroke="none" stroke-width="1" fill="none" fill-rule="evenodd">
        <g id="Logo" transform="translate(-960.000000, -192.000000)">
            <g id="wechat_pay_line" transform="translate(960.000000, 192.000000)">
                <path d="M24,0 L24,24 L0,24 L0,0 L24,0 Z M12.5935,23.2578 L12.5819,23.2595 L12.5109,23.295 L12.4919,23.2987 L12.4767,23.295 L12.4057,23.2595 C12.3958,23.2564 12.387,23.259 12.3821,23.2649 L12.378,23.2758 L12.3609,23.7031 L12.3659,23.7235 L12.3769,23.7357 L12.4805,23.8097 L12.4953,23.8136 L12.5071,23.8097 L12.6107,23.7357 L12.6233,23.7197 L12.6267,23.7031 L12.6096,23.2758 C12.6076,23.2657 12.601,23.2593 12.5935,23.2578 Z M12.8584,23.1453 L12.8445,23.1473 L12.6598,23.2397 L12.6499,23.2499 L12.6472,23.2611 L12.6651,23.6906 L12.6699,23.7034 L12.6784,23.7105 L12.8793,23.8032 C12.8914,23.8069 12.9022,23.803 12.9078,23.7952 L12.9118,23.7812 L12.8777,23.1665 C12.8753,23.1546 12.8674,23.147 12.8584,23.1453 Z M12.143,23.1473 C12.1332,23.1424 12.1222,23.1453 12.1156,23.1526 L12.1099,23.1665 L12.0758,23.7812 C12.0751,23.7927 12.0828,23.8019 12.0926,23.8046 L12.1083,23.8032 L12.3092,23.7105 L12.3186,23.7024 L12.3225,23.6906 L12.3404,23.2611 L12.3372,23.2485 L12.3278,23.2397 L12.143,23.1473 Z" id="MingCute" fill-rule="nonzero"></path>
                <path d="M12,5 C7.40326,5 4,8.07312 4,11.5 C4,13.5136 5.14136,15.3721 7.0416,16.5964 C7.4686,16.8715 7.6895,17.284 7.80811,17.6176 C7.94476,18.0021 7.99759,18.4122 8.0143,18.8184 C8.39477,18.6617 8.68819,18.3847 9.01774,18.1477 L9.01889,18.1468 C9.16888,18.039 9.60899,17.7225 10.1858,17.8316 C10.7677,17.9416 11.3749,18 12,18 C16.5967,18 20,14.9269 20,11.5 C20,10.5901 19.7689,9.71825 19.3429,8.92164 L10.0369,14.8437 C9.80616,14.9905 9.52538,15.0364 9.25991,14.9707 C8.99444,14.9051 8.76744,14.7336 8.63176,14.4961 L6.63176,10.9961 C6.40606,10.6012 6.47538,10.1036 6.80045,9.78541 C7.12552,9.46718 7.62442,9.40846 8.0145,9.64251 L9.59441,10.5905 C9.88173,10.7628 10.2363,10.7799 10.5388,10.6358 L17.9101,7.12572 C16.4633,5.83657 14.3695,5 12,5 Z M2,11.5 C2,6.64261 6.65561,3 12,3 C15.4537,3 18.5515,4.49026 20.3616,6.83083 C21.3887,8.15892 22,9.76317 22,11.5 C22,16.3574 17.3444,20 12,20 C11.3472,20 10.708,19.9469 10.0886,19.8452 C9.99597,19.918 9.83571,20.0501 9.63851,20.1891 C9.0713,20.5887 8.24917,21 7,21 C6.44772,21 6,20.5523 6,20 C6,19.6113 6.0456,19.2581 6.00864,18.7715 C5.9954,18.5972 5.97959,18.4055 5.90624,18.2438 C3.57701,16.7225 2,14.2978 2,11.5 Z" id="形状" fill="#09244B"></path>
            </g>
        </g>
    </g>
</svg>

<svg xmlns="http://www.w3.org/2000/svg" width="24" height="24"><g fill="none" fill-rule="evenodd"><path d="M24 0v24H0V0h24ZM12.594 23.258l-.012.002-.071.035-.02.004-.014-.004-.071-.036c-.01-.003-.019 0-.024.006l-.004.01-.017.428.005.02.01.013.104.074.015.004.012-.004.104-.074.012-.016.004-.017-.017-.427c-.002-.01-.009-.017-.016-.018Zm.264-.113-.014.002-.184.093-.01.01-.003.011.018.43.005.012.008.008.201.092c.012.004.023 0 .029-.008l.004-.014-.034-.614c-.003-.012-.01-.02-.02-.022Zm-.715.002a.023.023 0 0 0-.027.006l-.006.014-.034.614c0 .012.007.02.017.024l.015-.002.201-.093.01-.008.003-.011.018-.43-.003-.012-.01-.01-.184-.092Z"/><path fill="#09244B" d="M12 5c-4.597 0-8 3.073-8 6.5 0 2.014 1.141 3.872 3.042 5.096.427.276.648.688.766 1.022.137.384.19.794.206 1.2.38-.156.674-.433 1.004-.67v-.001c.15-.108.591-.424 1.168-.315.582.11 1.189.168 1.814.168 4.597 0 8-3.073 8-6.5 0-.91-.231-1.782-.657-2.578l-9.306 5.922a1 1 0 0 1-1.405-.348l-2-3.5a1 1 0 0 1 1.383-1.353l1.58.947a1 1 0 0 0 .944.046l7.371-3.51C16.463 5.836 14.37 5 12 5ZM2 11.5C2 6.643 6.656 3 12 3c3.454 0 6.552 1.49 8.362 3.83C21.389 8.16 22 9.764 22 11.5c0 4.857-4.656 8.5-10 8.5-.653 0-1.292-.053-1.911-.155-.093.073-.253.205-.45.344C9.07 20.59 8.249 21 7 21a1 1 0 0 1-1-1c0-.389.046-.742.009-1.229-.014-.174-.03-.366-.103-.527C3.577 16.723 2 14.298 2 11.5Z"/></g></svg>
